public/assets/img/date.svg

<svg width="15" height="16" viewBox="0 0 15 16" fill="none" xmlns="http://www.w3.org/2000/svg">
<path d="M13.3333 16H1.66667C0.746192 16 0 15.2837 0 14.4V3.2C0 2.31634 0.746192 1.6 1.66667 1.6H3.33333V0H5V1.6H10V0H11.6667V1.6H13.3333C14.2538 1.6 15 2.31634 15 3.2V14.4C15 15.2837 14.2538 16 13.3333 16ZM1.66667 6.4V14.4H13.3333V6.4H1.66667ZM1.66667 3.2V4.8H13.3333V3.2H1.66667ZM11.6667 12.8H10V11.2H11.6667V12.8ZM8.33333 12.8H6.66667V11.2H8.33333V12.8ZM5 12.8H3.33333V11.2H5V12.8ZM11.6667 9.6H10V8H11.6667V9.6ZM8.33333 9.6H6.66667V8H8.33333V9.6ZM5 9.6H3.33333V8H5V9.6Z" fill="#13599F"/>
</svg>

<svg width="15" height="16" fill="none" xmlns="http://www.w3.org/2000/svg"><path d="M13.333 16H1.667C.747 16 0 15.284 0 14.4V3.2c0-.884.746-1.6 1.667-1.6h1.666V0H5v1.6h5V0h1.667v1.6h1.666c.92 0 1.667.716 1.667 1.6v11.2c0 .884-.746 1.6-1.667 1.6ZM1.667 6.4v8h11.666v-8H1.667Zm0-3.2v1.6h11.666V3.2H1.667Zm10 9.6H10v-1.6h1.667v1.6Zm-3.334 0H6.667v-1.6h1.666v1.6ZM5 12.8H3.333v-1.6H5v1.6Zm6.667-3.2H10V8h1.667v1.6Zm-3.334 0H6.667V8h1.666v1.6ZM5 9.6H3.333V8H5v1.6Z" fill="#13599F"/></svg>
